teeny/outline/pinterest.svg

<svg width="15" height="15" viewBox="0 0 15 15" fill="none" xmlns="http://www.w3.org/2000/svg">
<path d="M4.5 13.5L7.5 6.5M4.26389 9.5C3.78885 8.96924 3.5 8.26835 3.5 7.5V7C3.5 5.067 5.067 3.5 7 3.5H8C9.933 3.5 11.5 5.067 11.5 7V7.5C11.5 9.15685 10.1569 10.5 8.5 10.5C7.60421 10.5 6.80893 9.92679 6.52566 9.07697L6.5 9M7.5 14.5C3.63401 14.5 0.5 11.366 0.5 7.5C0.5 3.63401 3.63401 0.5 7.5 0.5C11.366 0.5 14.5 3.63401 14.5 7.5C14.5 11.366 11.366 14.5 7.5 14.5Z" stroke="black"/>
</svg>

<svg viewBox="0 0 15 15" xmlns="http://www.w3.org/2000/svg"><path fill="none" stroke="#000" d="M4.5 13.5l3-7m-3.24 3c-.48-.54-.77-1.24-.77-2V7c0-1.94 1.56-3.5 3.5-3.5h1c1.93 0 3.5 1.56 3.5 3.5v.5c0 1.65-1.35 3-3 3 -.9 0-1.7-.58-1.98-1.43l-.03-.08m1 5.5c-3.87 0-7-3.14-7-7 0-3.87 3.13-7 7-7 3.86 0 7 3.13 7 7 0 3.86-3.14 7-7 7Z"/></svg>
